pic/toys/paper_airplane.svg

<?xml version="1.0" encoding="UTF-8" standalone="no"?>
<!DOCTYPE svg PUBLIC "-//W3C//DTD SVG 1.0//EN"
"http://www.w3.org/TR/2001/REC-SVG-20010904/DTD/svg10.dtd">
<!-- Created with Inkscape (http://www.inkscape.org/) --><svg height="128.00000pt" id="svg834" inkscape:version="0.38.1" sodipodi:docbase="/home/nicu/Desktop" sodipodi:docname="paper_plane.svg" sodipodi:version="0.32" width="128.00000pt" xmlns="http://www.w3.org/2000/svg" xmlns:inkscape="http://www.inkscape.org/namespaces/inkscape" xmlns:sodipodi="http://sodipodi.sourceforge.net/DTD/sodipodi-0.dtd" xmlns:xlink="http://www.w3.org/1999/xlink">
  <metadata>
    <rdf:RDF xmlns:cc="http://web.resource.org/cc/" xmlns:dc="http://purl.org/dc/elements/1.1/" xmlns:rdf="http://www.w3.org/1999/02/22-rdf-syntax-ns#">
      <cc:Work rdf:about="">
        <dc:title>toy paper plane</dc:title>
        <dc:description></dc:description>
        <dc:subject>
          <rdf:Bag>
            <rdf:li></rdf:li>
            <rdf:li>plane</rdf:li>
            <rdf:li>toy</rdf:li>
            <rdf:li>recreation</rdf:li>
          </rdf:Bag>
        </dc:subject>
        <dc:publisher>
          <cc:Agent rdf:about="http://www.openclipart.org">
            <dc:title>Nicu Buculei</dc:title>
          </cc:Agent>
        </dc:publisher>
        <dc:creator>
          <cc:Agent>
            <dc:title>Nicu Buculei</dc:title>
          </cc:Agent>
        </dc:creator>
        <dc:rights>
          <cc:Agent>
            <dc:title>Nicu Buculei</dc:title>
          </cc:Agent>
        </dc:rights>
        <dc:date></dc:date>
        <dc:format>image/svg+xml</dc:format>
        <dc:type rdf:resource="http://purl.org/dc/dcmitype/StillImage"/>
        <cc:license rdf:resource="http://web.resource.org/cc/PublicDomain"/>
        <dc:language>en</dc:language>
      </cc:Work>
      <cc:License rdf:about="http://web.resource.org/cc/PublicDomain">
        <cc:permits rdf:resource="http://web.resource.org/cc/Reproduction"/>
        <cc:permits rdf:resource="http://web.resource.org/cc/Distribution"/>
        <cc:permits rdf:resource="http://web.resource.org/cc/DerivativeWorks"/>
      </cc:License>
    </rdf:RDF>
  </metadata>
  <defs id="defs836">
    <linearGradient id="linearGradient844">
      <stop id="stop845" offset="0.0000000" style="stop-color:#000000;stop-opacity:0.20000000;"/>
      <stop id="stop846" offset="1.0000000" style="stop-color:#ffffff;stop-opacity:0.0000000;"/>
    </linearGradient>
    <linearGradient id="linearGradient847" x1="0.88405800" x2="-0.11231884" xlink:href="#linearGradient844" y1="1.0693070" y2="-0.26732674"/>
    <linearGradient id="linearGradient849" x1="0.93115944" x2="-0.22101450" xlink:href="#linearGradient844" y1="0.26666668" y2="-6.2189837e-16"/>
  </defs>
  <sodipodi:namedview bordercolor="#666666" borderopacity="1.0" id="base" inkscape:cx="59.820312" inkscape:cy="44.756226" inkscape:pageopacity="0.0" inkscape:pageshadow="2" inkscape:window-height="727" inkscape:window-width="775" inkscape:window-x="61" inkscape:window-y="32" inkscape:zoom="1.0000000" pagecolor="#ffffff"/>
  <g id="g853" transform="matrix(0.804830,-0.593505,0.593505,0.804830,-38.74979,69.86486)">
    <path d="M 10.307714,84.249660 L 127.67116,105.75174 L 135.89262,64.626841 L 10.307714,84.249660 z " id="path838" sodipodi:nodetypes="cccc" style="fill:#f3fafa;fill-rule:evenodd;stroke:#000000;stroke-width:1.2500000;stroke-linejoin:round;fill-opacity:1.0000000;"/>
    <path d="M 5.7541756,84.118300 L 137.38120,71.863687 L 127.06704,106.60959 L 5.7541756,84.118300 z " id="path837" sodipodi:nodetypes="cccc" style="fill:#f3fafa;fill-rule:evenodd;stroke:#000000;stroke-width:1.2500000;stroke-linejoin:round;fill-opacity:1.0000000;"/>
    <path d="M 45.468945,92.153495 L 126.49499,107.20414 L 134.74191,75.453474 L 45.468945,92.153495 z " id="path843" sodipodi:nodetypes="cccc" style="fill:url(#linearGradient847);fill-rule:evenodd;stroke:none;stroke-opacity:1;stroke-width:1pt;stroke-linejoin:miter;stroke-linecap:butt;fill-opacity:1;"/>
    <path d="M 36.381779,78.481860 L 135.34487,64.255915 L 133.69549,74.564571 L 36.381779,78.481860 z " id="path848" sodipodi:nodetypes="cccc" style="fill:url(#linearGradient849);fill-rule:evenodd;stroke:none;stroke-opacity:1;stroke-width:1pt;stroke-linejoin:miter;stroke-linecap:butt;fill-opacity:1;"/>
    <path d="M 7.7285785,84.443330 L 136.92224,71.046208 L 156.39565,98.522410 L 7.7285785,84.443330 z " id="path839" sodipodi:nodetypes="cccc" style="fill:#f3fafa;fill-rule:evenodd;stroke:#000000;stroke-width:1.2500000;stroke-linejoin:round;fill-opacity:1.0000000;"/>
    <path d="M 6.4324814,84.110460 L 135.82235,65.026493 L 136.38717,39.381305 L 6.4324814,84.110460 z " id="path840" sodipodi:nodetypes="cccc" style="fill:#f3fafa;fill-rule:evenodd;stroke:#000000;stroke-width:1.2500000;stroke-linejoin:round;fill-opacity:1.0000000;"/>
    <path d="M 7.4926443,83.918020 L 55.496792,90.342280 L 53.162606,79.371920 L 7.4926443,83.918020 z " id="path841" sodipodi:nodetypes="cccc" style="fill:#f3fafa;fill-rule:evenodd;stroke:#000000;stroke-width:1.2500000;stroke-linejoin:round;fill-opacity:1.0000000;"/>
    <path d="M 7.0661678,84.050107 L 52.839508,77.784132 L 50.814457,67.258084 L 7.0661678,84.050107 z " id="path842" sodipodi:nodetypes="cccc" style="fill:#f3fafa;fill-rule:evenodd;stroke:#000000;stroke-width:1.2500000;stroke-linejoin:round;fill-opacity:1.0000000;"/>
    <path d="M 54.065550,80.551562 L 55.842352,88.166429 L 127.16827,94.765979 L 54.065550,80.551562 z " id="path850" style="fill:#fffafa;fill-rule:evenodd;stroke:none;stroke-opacity:1;stroke-width:1pt;stroke-linejoin:miter;stroke-linecap:butt;fill-opacity:1.0000000;"/>
    <path d="M 13.452930,82.328365 L 45.689197,70.144579 L 46.958342,77.759445 L 13.452930,82.328365 z " id="path851" style="fill:#fffafa;fill-rule:evenodd;stroke:none;stroke-opacity:1;stroke-width:1pt;stroke-linejoin:miter;stroke-linecap:butt;fill-opacity:1.0000000;"/>
    <path d="M 12.945272,84.105164 L 46.450683,81.059223 L 47.465999,88.166426 L 12.945272,84.105164 z " id="path852" sodipodi:nodetypes="cccc" style="fill:#fffafa;fill-rule:evenodd;stroke:none;stroke-opacity:1;stroke-width:1pt;stroke-linejoin:miter;stroke-linecap:butt;fill-opacity:1.0000000;"/>
  </g>
</svg>

<?xml version="1.0" encoding="UTF-8" standalone="no"?>
<!-- Created with Inkscape (http://www.inkscape.org/) -->

<svg
   xmlns:dc="http://purl.org/dc/elements/1.1/"
   xmlns:cc="http://creativecommons.org/ns#"
   xmlns:rdf="http://www.w3.org/1999/02/22-rdf-syntax-ns#"
   xmlns:svg="http://www.w3.org/2000/svg"
   xmlns="http://www.w3.org/2000/svg"
   xmlns:xlink="http://www.w3.org/1999/xlink"
   xmlns:sodipodi="http://sodipodi.sourceforge.net/DTD/sodipodi-0.dtd"
   xmlns:inkscape="http://www.inkscape.org/namespaces/inkscape"
   height="112.124"
   id="svg834"
   inkscape:version="0.92.2 (5c3e80d, 2017-08-06)"
   sodipodi:docname="paper_airplane.svg"
   sodipodi:version="0.32"
   width="127.9995"
   version="1.1">
  <title
     id="title829">toy paper plane</title>
  <metadata
     id="metadata2">
    <rdf:RDF>
      <cc:Work
         rdf:about="">
        <dc:title>toy paper plane</dc:title>
        <dc:description />
        <dc:subject>
          <rdf:Bag>
            <rdf:li />
            <rdf:li>plane</rdf:li>
            <rdf:li>toy</rdf:li>
            <rdf:li>recreation</rdf:li>
          </rdf:Bag>
        </dc:subject>
        <dc:publisher>
          <cc:Agent
             rdf:about="http://www.openclipart.org">
            <dc:title>Nicu Buculei</dc:title>
          </cc:Agent>
        </dc:publisher>
        <dc:creator>
          <cc:Agent>
            <dc:title>Nicu Buculei</dc:title>
          </cc:Agent>
        </dc:creator>
        <dc:rights>
          <cc:Agent>
            <dc:title>Nicu Buculei</dc:title>
          </cc:Agent>
        </dc:rights>
        <dc:date />
        <dc:format>image/svg+xml</dc:format>
        <dc:type
           rdf:resource="http://purl.org/dc/dcmitype/StillImage" />
        <cc:license
           rdf:resource="http://creativecommons.org/publicdomain/zero/1.0/" />
        <dc:language>en</dc:language>
      </cc:Work>
      <cc:License
         rdf:about="http://creativecommons.org/publicdomain/zero/1.0/">
        <cc:permits
           rdf:resource="http://creativecommons.org/ns#Reproduction" />
        <cc:permits
           rdf:resource="http://creativecommons.org/ns#Distribution" />
        <cc:permits
           rdf:resource="http://creativecommons.org/ns#DerivativeWorks" />
      </cc:License>
    </rdf:RDF>
  </metadata>
  <defs
     id="defs836">
    <linearGradient
       id="linearGradient844">
      <stop
         id="stop845"
         offset="0.0000000"
         style="stop-color:#000000;stop-opacity:0.20000000;" />
      <stop
         id="stop846"
         offset="1.0000000"
         style="stop-color:#ffffff;stop-opacity:0.0000000;" />
    </linearGradient>
    <linearGradient
       id="linearGradient847"
       x1="74.183426"
       x2="21.136522"
       xlink:href="#linearGradient844"
       y1="183.45074"
       y2="112.28863"
       gradientTransform="scale(1.6768089,0.59637089)"
       gradientUnits="userSpaceOnUse" />
    <linearGradient
       id="linearGradient849"
       x1="48.732182"
       x2="5.5011873"
       xlink:href="#linearGradient844"
       y1="179.48204"
       y2="169.47638"
       gradientTransform="scale(2.6375218,0.37914378)"
       gradientUnits="userSpaceOnUse" />
  </defs>
  <sodipodi:namedview
     bordercolor="#666666"
     borderopacity="1.0"
     id="base"
     inkscape:cx="-139.88087"
     inkscape:cy="7.5336416"
     inkscape:pageopacity="0.0"
     inkscape:pageshadow="2"
     inkscape:window-height="1025"
     inkscape:window-width="1920"
     inkscape:window-x="-8"
     inkscape:window-y="-8"
     inkscape:zoom="1"
     pagecolor="#ffffff"
     showgrid="false"
     inkscape:window-maximized="1"
     inkscape:current-layer="svg834"
     fit-margin-top="0"
     fit-margin-left="0"
     fit-margin-right="0"
     fit-margin-bottom="0"
     units="px" />
  <g
     id="g853"
     transform="matrix(0.7861599,-0.57973713,0.57973713,0.7861599,-52.680009,48.719159)">
    <path
       d="m 10.307714,84.24966 117.363446,21.50208 8.22146,-41.124899 z"
       id="path838"
       sodipodi:nodetypes="cccc"
       style="fill:#f3fafa;fill-opacity:1;fill-rule:evenodd;stroke:#000000;stroke-width:1.25;stroke-linejoin:round"
       inkscape:connector-curvature="0" />
    <path
       d="M 5.7541756,84.1183 137.3812,71.863687 127.06704,106.60959 Z"
       id="path837"
       sodipodi:nodetypes="cccc"
       style="fill:#f3fafa;fill-opacity:1;fill-rule:evenodd;stroke:#000000;stroke-width:1.25;stroke-linejoin:round"
       inkscape:connector-curvature="0" />
    <path
       d="m 45.468945,92.153495 81.026045,15.050645 8.24692,-31.750666 z"
       id="path843"
       sodipodi:nodetypes="cccc"
       style="fill:url(#linearGradient847);fill-opacity:1;fill-rule:evenodd;stroke:none;stroke-width:1.00000003pt;stroke-linecap:butt;stroke-linejoin:miter;stroke-opacity:1"
       inkscape:connector-curvature="0" />
    <path
       d="M 36.381779,78.48186 135.34487,64.255915 133.69549,74.564571 Z"
       id="path848"
       sodipodi:nodetypes="cccc"
       style="fill:url(#linearGradient849);fill-opacity:1;fill-rule:evenodd;stroke:none;stroke-width:1.00000003pt;stroke-linecap:butt;stroke-linejoin:miter;stroke-opacity:1"
       inkscape:connector-curvature="0" />
    <path
       d="M 7.7285785,84.44333 136.92224,71.046208 156.39565,98.52241 Z"
       id="path839"
       sodipodi:nodetypes="cccc"
       style="fill:#f3fafa;fill-opacity:1;fill-rule:evenodd;stroke:#000000;stroke-width:1.25;stroke-linejoin:round"
       inkscape:connector-curvature="0" />
    <path
       d="M 6.4324814,84.11046 135.82235,65.026493 136.38717,39.381305 Z"
       id="path840"
       sodipodi:nodetypes="cccc"
       style="fill:#f3fafa;fill-opacity:1;fill-rule:evenodd;stroke:#000000;stroke-width:1.25;stroke-linejoin:round"
       inkscape:connector-curvature="0" />
    <path
       d="M 7.4926443,83.91802 55.496792,90.34228 53.162606,79.37192 Z"
       id="path841"
       sodipodi:nodetypes="cccc"
       style="fill:#f3fafa;fill-opacity:1;fill-rule:evenodd;stroke:#000000;stroke-width:1.25;stroke-linejoin:round"
       inkscape:connector-curvature="0" />
    <path
       d="M 7.0661678,84.050107 52.839508,77.784132 50.814457,67.258084 Z"
       id="path842"
       sodipodi:nodetypes="cccc"
       style="fill:#f3fafa;fill-opacity:1;fill-rule:evenodd;stroke:#000000;stroke-width:1.25;stroke-linejoin:round"
       inkscape:connector-curvature="0" />
    <path
       d="m 54.06555,80.551562 1.776802,7.614867 71.325918,6.59955 z"
       id="path850"
       style="fill:#fffafa;fill-opacity:1;fill-rule:evenodd;stroke:none;stroke-width:1.00000003pt;stroke-linecap:butt;stroke-linejoin:miter;stroke-opacity:1"
       inkscape:connector-curvature="0" />
    <path
       d="m 13.45293,82.328365 32.236267,-12.183786 1.269145,7.614866 z"
       id="path851"
       style="fill:#fffafa;fill-opacity:1;fill-rule:evenodd;stroke:none;stroke-width:1.00000003pt;stroke-linecap:butt;stroke-linejoin:miter;stroke-opacity:1"
       inkscape:connector-curvature="0" />
    <path
       d="m 12.945272,84.105164 33.505411,-3.045941 1.015316,7.107203 z"
       id="path852"
       sodipodi:nodetypes="cccc"
       style="fill:#fffafa;fill-opacity:1;fill-rule:evenodd;stroke:none;stroke-width:1.00000003pt;stroke-linecap:butt;stroke-linejoin:miter;stroke-opacity:1"
       inkscape:connector-curvature="0" />
  </g>
</svg>
